packages/icons/src/gitops-repository-certificates-blue-circle.svg

<svg fill="none" viewBox="0 0 32 32" xmlns="http://www.w3.org/2000/svg"><circle cx="16" cy="16" fill="#00ade4" r="16"/><path clip-rule="evenodd" d="m9.70898 20.0529v-10.11638h12.51472v10.11638zm13.07722-11.24138h-13.63972c-.31066 0-.5625.25184-.5625.5625v11.24138c0 .3107.25184.5625.5625.5625h13.63972c.3106 0 .5625-.2518.5625-.5625v-11.24138c0-.31066-.2519-.5625-.5625-.5625zm-4.3413 3.38258c-.6521 0-1.1806.5285-1.1806 1.1806 0 .652.5285 1.1805 1.1806 1.1805.652 0 1.1805-.5285 1.1805-1.1805 0-.6521-.5285-1.1806-1.1805-1.1806zm-2.3056 1.1806c0-1.2734 1.0322-2.3056 2.3056-2.3056 1.2733 0 2.3055 1.0322 2.3055 2.3056 0 .3724-.0883.7242-.2451 1.0356v3.9627c0 .2183-.1263.4169-.3241.5094-.1977.0926-.4312.0623-.5988-.0776l-.9973-.8323-1.0981.846c-.1698.1309-.3992.1538-.5916.0592-.1923-.0946-.3142-.2904-.3142-.5047v-3.6407c-.2779-.3808-.4419-.8501-.4419-1.3576zm2.3056 2.3055c.333 0 .6495-.0706.9354-.1976v1.6883l-.4207-.3512c-.2024-.1689-.495-.1746-.7038-.0137l-.5496.4235v-1.6701c.2319.0783.4803.1208.7387.1208zm-7.5184-3.4879c0-.3106.2513-.5625.5612-.5625h3.3777c.3099 0 .5611.2519.5611.5625 0 .3107-.2512.5625-.5611.5625h-3.3777c-.3099 0-.5612-.2518-.5612-.5625zm.5612 1.685c-.3099 0-.5612.2518-.5612.5625 0 .3106.2513.5625.5612.5625h3.3777c.3099 0 .5611-.2519.5611-.5625 0-.3107-.2512-.5625-.5611-.5625z" fill="#fff" fill-rule="evenodd"/></svg>

<svg viewBox="0 0 32 32" fill="none" xmlns="http://www.w3.org/2000/svg">
<circle cx="16" cy="16" r="16" fill="#00ADE4"/>
<path fill-rule="evenodd" clip-rule="evenodd" d="M9.70898 20.0529V9.93652H22.2237V20.0529H9.70898ZM22.7862 8.81152H9.14648C8.83582 8.81152 8.58398 9.06336 8.58398 9.37402V20.6154C8.58398 20.9261 8.83582 21.1779 9.14648 21.1779H22.7862C23.0968 21.1779 23.3487 20.9261 23.3487 20.6154V9.37402C23.3487 9.06336 23.0968 8.81152 22.7862 8.81152ZM18.4449 12.1941C17.7928 12.1941 17.2643 12.7226 17.2643 13.3747C17.2643 14.0267 17.7928 14.5552 18.4449 14.5552C19.0969 14.5552 19.6254 14.0267 19.6254 13.3747C19.6254 12.7226 19.0969 12.1941 18.4449 12.1941ZM16.1393 13.3747C16.1393 12.1013 17.1715 11.0691 18.4449 11.0691C19.7182 11.0691 20.7504 12.1013 20.7504 13.3747C20.7504 13.7471 20.6621 14.0989 20.5053 14.4103V18.373C20.5053 18.5913 20.379 18.7899 20.1812 18.8824C19.9835 18.975 19.75 18.9447 19.5824 18.8048L18.5851 17.9725L17.487 18.8185C17.3172 18.9494 17.0878 18.9723 16.8954 18.8777C16.7031 18.7831 16.5812 18.5873 16.5812 18.373V14.7323C16.3033 14.3515 16.1393 13.8822 16.1393 13.3747ZM18.4449 15.6802C18.7779 15.6802 19.0944 15.6096 19.3803 15.4826V17.1709L18.9596 16.8197C18.7572 16.6508 18.4646 16.6451 18.2558 16.806L17.7062 17.2295V15.5594C17.9381 15.6377 18.1865 15.6802 18.4449 15.6802ZM10.9265 12.1923C10.9265 11.8817 11.1778 11.6298 11.4877 11.6298H14.8654C15.1753 11.6298 15.4265 11.8817 15.4265 12.1923C15.4265 12.503 15.1753 12.7548 14.8654 12.7548H11.4877C11.1778 12.7548 10.9265 12.503 10.9265 12.1923ZM11.4877 13.8773C11.1778 13.8773 10.9265 14.1291 10.9265 14.4398C10.9265 14.7504 11.1778 15.0023 11.4877 15.0023H14.8654C15.1753 15.0023 15.4265 14.7504 15.4265 14.4398C15.4265 14.1291 15.1753 13.8773 14.8654 13.8773H11.4877Z" fill="white"/>
</svg>
